svgs/materials/action/android.svg

<svg xmlns="http://www.w3.org/2000/svg" enable-background="new 0 0 24 24" height="24" viewBox="0 0 24 24" width="24"><g><g><path d="M0,0h24v24H0V0z" fill="none"/></g></g><g><g><path d="M17.6,9.48l1.84-3.18c0.16-0.31,0.04-0.69-0.26-0.85c-0.29-0.15-0.65-0.06-0.83,0.22l-1.88,3.24 c-2.86-1.21-6.08-1.21-8.94,0L5.65,5.67c-0.19-0.29-0.58-0.38-0.87-0.2C4.5,5.65,4.41,6.01,4.56,6.3L6.4,9.48 C3.3,11.25,1.28,14.44,1,18h22C22.72,14.44,20.7,11.25,17.6,9.48z M7,15.25c-0.69,0-1.25-0.56-1.25-1.25 c0-0.69,0.56-1.25,1.25-1.25S8.25,13.31,8.25,14C8.25,14.69,7.69,15.25,7,15.25z M17,15.25c-0.69,0-1.25-0.56-1.25-1.25 c0-0.69,0.56-1.25,1.25-1.25s1.25,0.56,1.25,1.25C18.25,14.69,17.69,15.25,17,15.25z"/></g></g></svg>

<?xml version="1.0" encoding="UTF-8" standalone="no"?>
<svg
   enable-background="new 0 0 24 24"
   height="24"
   viewBox="0 0 24 24"
   width="24"
   version="1.1"
   id="svg231"
   sodipodi:docname="android.svg"
   inkscape:version="1.2 (dc2aeda, 2022-05-15)"
   xmlns:inkscape="http://www.inkscape.org/namespaces/inkscape"
   xmlns:sodipodi="http://sodipodi.sourceforge.net/DTD/sodipodi-0.dtd"
   xmlns="http://www.w3.org/2000/svg"
   xmlns:svg="http://www.w3.org/2000/svg">
  <defs
     id="defs235" />
  <sodipodi:namedview
     id="namedview233"
     pagecolor="#ffffff"
     bordercolor="#000000"
     borderopacity="0.25"
     inkscape:showpageshadow="2"
     inkscape:pageopacity="0.0"
     inkscape:pagecheckerboard="0"
     inkscape:deskcolor="#d1d1d1"
     showgrid="false"
     inkscape:zoom="9.8333333"
     inkscape:cx="12.050847"
     inkscape:cy="12"
     inkscape:window-width="1309"
     inkscape:window-height="456"
     inkscape:window-x="0"
     inkscape:window-y="25"
     inkscape:window-maximized="0"
     inkscape:current-layer="svg231" />
  <path
     d="M 17.6,9.48 19.44,6.3 C 19.6,5.99 19.48,5.61 19.18,5.45 18.89,5.3 18.53,5.39 18.35,5.67 L 16.47,8.91 C 13.61,7.7 10.39,7.7 7.53,8.91 L 5.65,5.67 C 5.46,5.38 5.07,5.29 4.78,5.47 4.5,5.65 4.41,6.01 4.56,6.3 L 6.4,9.48 C 3.3,11.25 1.28,14.44 1,18 H 23 C 22.72,14.44 20.7,11.25 17.6,9.48 Z M 7,15.25 c -0.69,0 -1.25,-0.56 -1.25,-1.25 0,-0.69 0.56,-1.25 1.25,-1.25 0.69,0 1.25,0.56 1.25,1.25 0,0.69 -0.56,1.25 -1.25,1.25 z m 10,0 c -0.69,0 -1.25,-0.56 -1.25,-1.25 0,-0.69 0.56,-1.25 1.25,-1.25 0.69,0 1.25,0.56 1.25,1.25 0,0.69 -0.56,1.25 -1.25,1.25 z"
     id="path225" />
</svg>
